polaris-icons/icons/newicons/AccessibilityMajor.svg

<svg width="20" height="20" viewBox="0 0 20 20" fill="none" xmlns="http://www.w3.org/2000/svg">
<path d="M3.50098 10L3.50128 9.99848C3.50498 9.97974 3.51938 9.90693 3.57519 9.7695C3.64188 9.60528 3.74855 9.39534 3.89877 9.15327C4.19885 8.66968 4.64951 8.09519 5.23249 7.54584C6.40314 6.44274 8.04078 5.5 10 5.5C11.9691 5.5 13.5466 6.38916 14.6817 7.42821C15.2485 7.94708 15.6945 8.49452 16.0104 8.96497C16.339 9.45438 16.4911 9.80679 16.5224 9.9319C16.6229 10.3337 17.0301 10.5781 17.4319 10.4776C17.8337 10.3771 18.0781 9.96994 17.9776 9.5681C17.8839 9.19321 17.6195 8.67062 17.2557 8.12878C16.8791 7.56798 16.3567 6.92792 15.6945 6.32179C14.3717 5.11084 12.4492 4 10 4C7.54094 4 5.55358 5.18226 4.2038 6.45416C3.52656 7.09231 2.99315 7.76782 2.62422 8.36236C2.43992 8.65935 2.29085 8.9455 2.18542 9.20511C2.08721 9.44694 2 9.72983 2 10C2 10.2702 2.08721 10.5531 2.18542 10.7949C2.29085 11.0545 2.43992 11.3406 2.62422 11.6376C2.99315 12.2322 3.52656 12.9077 4.2038 13.5458C5.55358 14.8177 7.54094 16 10 16C10.4142 16 10.75 15.6642 10.75 15.25C10.75 14.8358 10.4142 14.5 10 14.5C8.04078 14.5 6.40314 13.5573 5.23249 12.4542C4.64951 11.9048 4.19885 11.3303 3.89877 10.8467C3.74855 10.6047 3.64188 10.3947 3.57519 10.2305C3.51938 10.0931 3.50498 10.0203 3.50128 10.0015L3.50098 10Z" fill="black"/>
<path fill-rule="evenodd" clip-rule="evenodd" d="M10 13C11.6569 13 13 11.6569 13 10C13 8.34315 11.6569 7 10 7C8.34315 7 7 8.34315 7 10C7 11.6569 8.34315 13 10 13ZM10 11.5C10.8284 11.5 11.5 10.8284 11.5 10C11.5 9.17157 10.8284 8.5 10 8.5C9.17157 8.5 8.5 9.17157 8.5 10C8.5 10.8284 9.17157 11.5 10 11.5Z" fill="black"/>
<path d="M13.2803 13.6821C12.9874 13.3892 12.5126 13.3892 12.2197 13.6821C11.9268 13.975 11.9268 14.4498 12.2197 14.7427L14.2678 16.7908C14.5607 17.0837 15.0355 17.0837 15.3284 16.7908L18.7907 13.3285C19.0836 13.0356 19.0836 12.5608 18.7907 12.2679C18.4978 11.975 18.023 11.975 17.7301 12.2679L14.7981 15.1998L13.2803 13.6821Z" fill="black"/>
</svg>

<svg viewBox="0 0 20 20" fill="none" xmlns="http://www.w3.org/2000/svg"><path d="M3.501 10v-.002c.004-.018.018-.091.074-.228.067-.165.174-.375.324-.617.3-.483.75-1.058 1.333-1.607 1.171-1.103 2.809-2.046 4.768-2.046 1.97 0 3.547.89 4.682 1.928a8.682 8.682 0 0 1 1.328 1.537c.329.49.481.842.512.967a.75.75 0 0 0 1.456-.364c-.094-.375-.359-.897-.722-1.44a10.18 10.18 0 0 0-1.562-1.806c-1.322-1.211-3.245-2.322-5.694-2.322-2.46 0-4.446 1.182-5.796 2.454a9.747 9.747 0 0 0-1.58 1.908 5.704 5.704 0 0 0-.439.843c-.098.242-.185.525-.185.795s.087.553.185.795c.106.26.255.546.44.843.368.594.902 1.27 1.579 1.908 1.35 1.272 3.337 2.454 5.796 2.454a.75.75 0 0 0 0-1.5c-1.96 0-3.597-.943-4.768-2.046a8.253 8.253 0 0 1-1.333-1.607 4.223 4.223 0 0 1-.324-.617 1.233 1.233 0 0 1-.074-.229v-.001Z" fill="#000"/><path fill-rule="evenodd" clip-rule="evenodd" d="M10 13a3 3 0 1 0 0-6 3 3 0 0 0 0 6Zm0-1.5a1.5 1.5 0 1 0 0-3 1.5 1.5 0 0 0 0 3Z" fill="#000"/><path d="M13.28 13.682a.75.75 0 1 0-1.06 1.06l2.048 2.049a.75.75 0 0 0 1.06 0l3.463-3.463a.75.75 0 1 0-1.06-1.06l-2.933 2.932-1.518-1.518Z" fill="#000"/></svg>
